X: 20
T: The St. George __
C: (Capt. Baker's Choise)
R: waltz
M: 3/8
L: 1/8
Z: 2010 John Chambers <jc:trillian.mit.edu> (tune)
Z: 2015 John Chambers <jc:trillian.mit.edu> (dance)
S: http://archive.org/details/imslp-american-country-dances-1785-various
S: http://imslp.org/wiki/24_American_Country_Dances_(Cantelo,_Hezekiah)
B: Cantelo ed. "Twenty Four American Country Dances", London 1785 (Longman & Broderip)
%%slurgraces 1
K: F
% - - - - - - - - - - - - - - - - - - - - - - - - - - - - -
V: 1
|: A2G | F2c | c>fc | (cB)A | A2G | F2E | F>DG | C3 :|
|: c2A/G/ | F2E | {EF}G2F |  {GA}B2A | cde | f2A | BGc | F3 :|
|: [f2A2]a | [f2A2]a | f>ga | [f2A2]c | [f2A2]a | [f2A2]a | a>bg | [f3A3] :|
% - - - - - - - - - - - - - - - - - - - - - - - - - - - - -
V: 2 clef=bass middle=d
|: fac' | f2z | faf | ecf | fac' | afe | f>dg | c3 :|
|: FFF | FFF | FFF | FFF | F2b | afa | b>gc' | f3 :|
|: f2a | f2a | f>ga | f2c | f2a | f2a | c'2c | [f3F3] :|
% - - - - - - - - - - Dance description - - - - - - - - - -
%%begintext align
%% Right hands across half round and foot it .|. Left hands Ditto :|:
%% Gallop down in hand 2 Cu: .|. up again one Cu: and go la Pironette
%% :|: Right hands half round to the right and foot it .|. Ditto
%% left hands and Ditto .|.
%%endtext

%%sep 2 1 500

